X: 1
T: \AAttastjillingspolskan
O: Finland
F: https://www.youtube.com/watch?v=qa8AYi-Ehno
Z: 2016 John Chambers <jc:trillian.mit.edu>
M: 3/4
L: 1/16
K: Ddor
|:\
e4 d2eg f2ed | ed^cB ABcd efec |\
A2dd d2eg f2ed | ed^cB A2GB A4 :|
|:\
f4 {g}fefg a2f2 | gfed ^cdef g2e2 |\
fefg agfe defa | fed^c e2d2 d4 :|
